X:1
T:Gånglåt hemåt vid lunch
R:Gånglåt
O:Småland
M:2/4
L:1/8
K:G
Z:Bo Bernvill
D|: GG/2A/2 BG | d2 c/2B/2A/2c/2 | BG G3/2B/2 | AD DE/2F/2 | GG/2A/2 BG | d2 c/2B/2A/2c/2 | BG FA |1 G3 D :|2 G2 G,2 |: AD DE/2F/2 | G/2A/2B/2c/2 dG/2B/2 | AD DE/2F/2 | GD G,2 :| GG/2A/2 BG | d2 c/2B/2A/2c/2 | BG G3/2B/2 | AD DE/2F/2 | GG/2A/2 BG | d2 c/2B/2A/2c/2 | BG FA | G2 z2 |[K:A] AA/2B/2 cA | e2 d/2c/2B/2d/2 | cA A3/2c/2 | BE EF/2G/2 | AA/2B/2 cA | e2 d/2c/2B/2d/2 | cA GB | A2 A,2 |]

